!!!!SEGMENT: pl-kk--kk-i-109--005_pekiel-bartlomiej-missa-paschalis-agnus-dei.krn
!!!id: 16xx:1117
!!!COM: Pękiel, Bartłomiej
!!!OTL: Missa Paschalis – Agnus Dei
!!!PDT:
!!!SMS-siglum: PL-Kk
!!!SMS-shelfmark: Kk.I.109
!!!NIFC-rismID: 1001145405
!!!URL-scan: http://repozytorium.nifc.pl/skany/pl-kk-nut--i-109
!!!ONB-nifc: UWAGA: części Mszy: 1. Kyrie, 2. Et in terra, 3. Patrem, 4. Sanctus, 5. Agnus Dei
!!!SMS-variant: Basso PL-Kk Kk.I.109:21
!!!SMS-altvar: Basso PL-Kk Kk.I.109:24
**kern	**text	**kern	**text	**kern	**text	**kern	**text
*part4	*part4	*part3	*part3	*part2	*part2	*part1	*part1
*staff4	*staff4	*staff3	*staff3	*staff2	*staff2	*staff1	*staff1
*I"Baſso.	*	*I"Tenore 2	*	*I"Tenor 1	*	*I"Alto.	*
*I'B.	*	*I'T. 2	*	*I'T. 1	*	*I'A.	*
*clefF4	*	*clefC4	*	*clefC4	*	*clefC3	*
*k[]	*	*k[]	*	*k[]	*	*k[]	*
*M2/1	*	*M2/1	*	*M2/1	*	*M2/1	*
*met(C)	*	*met(C)	*	*met(C)	*	*met(C)	*
=1-	=1-	=1-	=1-	=1-	=1-	=1-	=1-
!LO:TX:t=P:problem:all\left or center:global	!	!LO:TX:t=P:problem:all\right:global	!	!LO:TX:t=P:problem:all\right:global	!	!	!
!LO:TX:t=P:problem:przed kluczem inicjał A	!	!LO:TX:t=P:problem:przed kluczem inicjał A	!	!LO:TX:t=P:problem:przed kluczem inicjał A	!	!LO:TX:t=P:problem:przed kluczem inicjał A	!
1.D	A-	1.A	A-	1.d	A-	1.f#X	A-
.	.	.	.	.	.	.	.
*	*	*	*	*2\right	*	*	*
!LO:TX:t=P:problem:kreska pseudotaktowa	!	!LO:TX:t=P:problem:kreska pseudotaktowa	!	!LO:TX:t=P:problem:kreska pseudotaktowa	!	!LO:TX:t=P:problem:kreska pseudotaktowa	!
2D/	-Gnus	2A/	-Gnus	2d\	-gnus	2f#y\	-Gnus
=2-	=2-	=2-	=2-	=2-	=2-	=2-	=2-
!	!	!	!	!LO:TX:t=P:problem:kreska pseudotaktowa	!	!	!
1GG	De-	1B-X	De-	1d	De-	1g	De-
!	!	!	!	!	!	!LO:N:acc=-	!
4.D/	-i	2A/	-i	4d\	-i	4fn\	-i
.	.	.	.	4d\	qui	4f\	qui
8D/	qui	.	.	.	.	.	.
!LO:TX:t=P:problem:kreska pseudotaktowa	!	!LO:TX:t=P:problem:kreska pseudotaktowa	!	!	!	!	!
2A\	tol-	2r	.	8c\L	tol-	8en\L	tol-
.	.	.	.	8B\	.	8d\	.
.	.	.	.	8c\	.	8e\	.
!	!	!	!	!LO:TX:t=P:problem:kreska pseudotaktowa	!	!LO:TX:t=P:problem:kreska pseudotaktowa	!
.	.	.	.	8d\J	.	8f\J	.
=3-	=3-	=3-	=3-	=3-	=3-	=3-	=3-
4E\	-lis	0r	.	2e\	-lis	2g\	.
4E\	pec-	.	.	.	.	.	.
4.G\	-ca-	.	.	4.B\	pec-	4.d\	-lis
!LO:TX:t=P:problem:kreska pseudotaktowa	!	!	!	!LO:TX:t=P:problem:kreska pseudotaktowa	!	!LO:TX:t=P:problem:kreska pseudotaktowa	!
8G\	-ta	.	.	8c\	-ca-	8e\	pec-
(2F\	mun-	.	.	4.d\	-ta	8f\L	-ca-
.	.	.	.	.	.	8g\	.
.	.	.	.	.	.	8a\J	.
.	.	.	.	8d\	mun-	8f\	-ta
!	!	!	!	!	!	!LO:TX:t=P:problem:kreska pseudotaktowa	!
2E\)	.	.	.	4d\	.	2g\	mun-
!	!	!	!	!LO:TX:t=P:problem:kreska pseudotaktowa	!	!	!
!	!	!	!	!LO:TX:a:t=P:problem:# above	!	!	!
.	.	.	.	4c#X\	.	.	.
=4-	=4-	=4-	=4-	=4-	=4-	=4-	=4-
4D,/	-di	2A/	Mi-	2d\	-di	4f#X\	-di
8.D/	mi-	.	.	.	.	8.f#\	mi-
16C/	-ſe-	.	.	.	.	16e\	-ſe-
*	*	*2\right	*	*	*	*	*
!	!	!LO:TX:t=P:problem:kreska pseudotaktowa	!	!LO:TX:t=P:problem:kreska pseudotaktowa	!	!	!
8BB/L	-re-	2Bny\	-ſe-	2r	.	8d\L	-re-
8AA/J	.	.	.	.	.	16e\L	.
.	.	.	.	.	.	16f#\J	.
8.GG/	-re	.	.	.	.	8g\	.
!	!	!	!	!	!	!LO:SIC:v:t=custos b	!
.	.	.	.	.	.	8f#\J	.
!LO:TX:t=P:problem:kreska pseudotaktowa	!	!	!	!	!	!	!
16GG/	.	.	.	.	.	.	.
!	!	!	!	!	!	!LO:TX:t=P:problem:kreska pseudotaktowa	!
!	!	!	!	!	!	!LO:LB:g=original	!
8AA/L	no-	2c\	-re-	4.A/	mi-	1e	.
8BB/	.	.	.	.	.	.	.
8C/	.	.	.	.	.	.	.
8AA/J	.	.	.	8A/	-se-	.	.
!	!	!LO:TX:t=P:problem:kreska pseudotaktowa	!	!	!	!	!
8E\L	.	2B\	-re	4.B\	-re-	.	.
8F\	.	.	.	.	.	.	.
8G\	.	.	.	.	.	.	.
!LO:TX:t=P:problem:kreska pseudotaktowa	!	!	!	!LO:SIC:v:t=custos C	!	!	!
!	!	!	!	!LO:TX:t=P:problem:kreska pseudotaktowa	!	!	!
8E\J	.	.	.	8B\	-re	.	.
=5-	=5-	=5-	=5-	=5-	=5-	=5-	=5-
!	!	!	!	!LO:LB:g=original	!	!	!
4A\	.	2.A/	no-	2cny\	no-	2e\	-re
4C/	.	.	.	.	.	.	.
4D/	.	.	.	2B\	.	(4fny\	no-
!LO:TX:t=P:problem:kreska pseudotaktowa	!	!	!	!	!	!LO:TX:t=P:problem:kreska pseudotaktowa	!
!	!	!LO:TX:b:t=P:problem:# below	!	!	!	!	!
4E\	.	4G#X/	.	.	.	4e\)	.
!	!	!LO:TX:t=P:problem:kreska pseudotaktowa	!	!LO:TX:t=P:problem:kreska pseudotaktowa	!	!LO:TX:t=P:problem:kreska pseudotaktowa	!
!	!	!	!	!LO:TX:a:t=P:problem:# above	!	!	!
4AA/	-bis	1A,	-bis	1c#X	-bis	1e	-bis
2A\	mi-	.	.	.	.	.	.
4G\	-ſe-	.	.	.	.	.	.
=6-	=6-	=6-	=6-	=6-	=6-	=6-	=6-
*	*	*	*	*	*ij	*	*
8F#X\L	-re-	2d\	Mi-	4.A/	mi-	2r	.
8D\	.	.	.	.	.	.	.
8E\	.	.	.	.	.	.	.
8F#\J	.	.	.	8A/	-se-	.	.
!	!	!	!	!LO:TX:t=P:problem:kreska pseudotaktowa	!	!	!
4G\	.	2B\	-ſe-	2G/	-re-	4.g\	mi-
!LO:SIC:v:t=custos C	!	!	!	!	!	!	!
!LO:TX:t=P:problem:kreska pseudotaktowa	!	!	!	!	!	!	!
4GG/	-re	.	.	.	.	.	.
!	!	!	!	!	!	!LO:TX:t=P:problem:kreska pseudotaktowa	!
.	.	.	.	.	.	8f\	-ſe-
!LO:LB:g=original	!	!	!	!	!	!	!
4.C/	mi-	2c\	-re-	4G/	-re	2e\	-re-
*	*	*	*	*	*Xij	*	*
.	.	.	.	4.cny\	.	.	.
8C/	-ſe-	.	.	.	.	.	.
!	!	!LO:TX:t=P:problem:kreska pseudotaktowa	!	!	!	!LO:TX:t=P:problem:kreska pseudotaktowa	!
8FF/L	-re-	2A,/	-re	.	.	2f\	-re
8GG/	.	.	.	8B-X\L	no-	.	.
8AA/	.	.	.	8c\	.	.	.
!LO:TX:t=P:problem:kreska pseudotaktowa	!	!	!	!LO:TX:t=P:problem:kreska pseudotaktowa	!	!	!
8BB-X/J	.	.	.	8d\J	.	.	.
=7-	=7-	=7-	=7-	=7-	=7-	=7-	=7-
8C/L	.	(2Gny/	no-	8e\L	.	2e\	no-
8D/	.	.	.	8d\	.	.	.
8E/J	.	.	.	8c\	.	.	.
8C/	-re	.	.	8B-\J	.	.	.
!LO:TX:t=P:problem:kreska pseudotaktowa	!	!	!	!	!	!LO:TX:t=P:problem:kreska pseudotaktowa	!
2D/	no-	2F/)	.	8A/L	.	2d\	.
.	.	.	.	8G/J	.	.	.
!	!	!	!	!LO:TX:t=P:problem:kreska pseudotaktowa	!	!	!
.	.	.	.	4A/	.	.	.
!	!	!LO:SIC:v:t=custos AA	!	!	!	!	!
!	!	!LO:TX:t=P:problem:kreska pseudotaktowa	!	!	!	!	!
1AA	-bis	1E	-bis	4A,/	-bis	4c#X,/	-bis
.	.	.	.	8A/	mi-	8c#/	mi-
.	.	.	.	8B\	-se-	8d\	-ſe-
!	!	!	!	!LO:TX:a:t=P:problem:# above	!	!	!
.	.	.	.	8c#X\L	-re-	8e\L	-re-
!	!	!	!	!	!	!LO:TX:a:t=P:problem:# above	!
.	.	.	.	8A\	.	8c#X\	.
.	.	.	.	8B\	.	8d\	.
!	!	!	!	!LO:TX:t=P:problem:kreska pseudotaktowa	!	!LO:TX:t=P:problem:kreska pseudotaktowa	!
.	.	.	.	8c#\J	.	8e\J	.
=8-	=8-	=8-	=8-	=8-	=8-	=8-	=8-
!	!	!LO:LB:g=original	!	!	!	!	!
4.D/	mi-	2r	.	8d\L	.	2f\	.
.	.	.	.	8A\J	.	.	.
.	.	.	.	4.d\	.	.	.
8D/	-ſe-	.	.	.	.	.	.
!LO:TX:t=P:problem:kreska pseudotaktowa	!	!	!	!	!	!LO:TX:t=P:problem:kreska pseudotaktowa	!
2A\	-re-	4.A/	Mi-	.	.	2e\	-re
.	.	.	.	16cny\LL	.	.	.
!	!	!	!	!LO:SIC:v:t=custos C	!	!	!
.	.	.	.	16B\JJ	.	.	.
!	!	!	!	!LO:TX:t=P:problem:kreska pseudotaktowa	!	!	!
!	!	!	!	!LO:LB:g=original	!	!	!
.	.	.	.	4c\	.	.	.
!	!	!LO:TX:t=P:problem:kreska pseudotaktowa	!	!	!	!	!
.	.	8A/	-ſe-	.	.	.	.
2E,\	-re	2e\	-re-	4G/	-re	8e\L	no-
.	.	.	.	.	.	8f\J	.
.	.	.	.	4.Bn\	mi-	2g\	.
!LO:TX:t=P:problem:kreska pseudotaktowa	!	!LO:TX:t=P:problem:kreska pseudotaktowa	!	!	!	!	!
2G\	no-	2B\	-re	.	.	.	.
.	.	.	.	8c\	-se-	.	.
!	!	!	!	!	!	!LO:SIC:v:t=custos A	!
!	!	!	!	!	!	!LO:TX:t=P:problem:kreska pseudotaktowa	!
.	.	.	.	8d\L	.	4G/	-bis
!	!	!	!	!LO:TX:t=P:problem:kreska pseudotaktowa	!	!	!
.	.	.	.	8e\	.	.	.
=9-	=9-	=9-	=9-	=9-	=9-	=9-	=9-
!	!	!	!	!	!	!LO:LB:g=original	!
2Fny\	.	2.d\	Mi-	8f\	.	4.A/	mi-
.	.	.	.	8e\J	.	.	.
.	.	.	.	8.d\	-re-	.	.
.	.	.	.	.	.	8A/	-ſe-
.	.	.	.	16d\	-re	.	.
!	!	!	!	!LO:TX:t=P:problem:kreska pseudotaktowa	!	!	!
4E\	.	.	.	2e\	no-	4G#X/	-re-
!LO:TX:t=P:problem:kreska pseudotaktowa	!	!LO:TX:t=P:problem:kreska pseudotaktowa	!	!	!	!LO:TX:t=P:problem:kreska pseudotaktowa	!
4AA/	.	4c\	-ſe-	.	.	4A/	-re
*	*	*	*	*	*	*	*ij
1E	.	4B\	.	2e\	.	4B/	mi-
.	.	2A/	-re-	.	.	4cny/	-ſe-
.	.	.	.	4e\	.	4B/	-re-
!	!	!LO:TX:t=P:problem:kreska pseudotaktowa	!	!LO:TX:t=P:problem:kreska pseudotaktowa	!	!LO:TX:t=P:problem:kreska pseudotaktowa	!
!	!	!LO:TX:b:t=P:problem:# below	!	!	!	!	!
.	.	4G#X/	.	[>4e\	-bis	4B/	-re
*	*	*	*	*	*	*	*Xij
=10-	=10-	=10-	=10-	=10-	=10-	=10-	=10-
!	!	!	!	!LO:N:xstem:cue	!	!	!
4AA/	-bis	2.A/	-re	8e]	.	8c/	mi-
.	.	.	.	8d\	mi-	8B/	-ſe-
*	*ij	*	*	*	*	*	*
8A\	mi-	.	.	8c\L	-se-	2A/	-re-
8G\	-ſe-	.	.	8B\J	.	.	.
8F\L	-re-	.	.	4A/	-re-	.	.
8E\J	.	.	.	.	.	.	.
!	!	!LO:TX:t=P:problem:kreska pseudotaktowa	!	!	!	!LO:TX:t=P:problem:kreska pseudotaktowa	!
8.D/	-re	4f\	.	2d\	-re	4a\	-re
!LO:TX:t=P:problem:kreska pseudotaktowa	!	!	!	!	!	!	!
16D/	.	.	.	.	.	.	.
1E	no-	1e	no-	.	.	8g#X\L	no-
.	.	.	.	.	.	8e\J	.
.	.	.	.	4c\	no-	2a\	.
!	!	!	!	!LO:TX:t=P:problem:kreska pseudotaktowa	!	!	!
.	.	.	.	2B\	-bis	.	.
!	!	!	!	!	!	!LO:TX:a:t=P:problem:# above	!
.	.	.	.	.	.	4g#X\	.
=11-	=11-	=11-	=11-	=11-	=11-	=11-	=11-
!LO:N:vis=1	!	!LO:N:vis=1	!	!LO:N:vis=1	!	!LO:N:vis=1	!
!LO:TX:t=P:problem:kreska pseudotaktowa	!	!LO:TX:t=P:problem:kreska pseudotaktowa	!	!LO:TX:t=P:problem:kreska pseudotaktowa	!	!LO:TX:t=P:problem:kreska pseudotaktowa	!
0AA	-bis	0e	-bis.	0c#X;<	.	0a;	-bis
*	*Xij	*	*	*	*	*	*
=12||	=12||	=12||	=12||	=12||	=12||	=12||	=12||
!	!	!LO:TX:a:t=P:problem:# above	!	!	!	!	!
1.AA	Ag-	1.c#	A-	1.e	A-	[1a	A-
.	.	.	.	.	.	_4a	.
.	.	.	.	.	.	4a\]	.
!LO:TX:t=P:problem:kreska pseudotaktowa	!	!LO:TX:t=P:problem:kreska pseudotaktowa	!	!LO:TX:t=P:problem:kreska pseudotaktowa	!	!LO:TX:t=P:problem:kreska pseudotaktowa	!
2FF#X/	-nus	2d\	-gnus	2d\	-gnus	[<2a\	-gnus
=13-	=13-	=13-	=13-	=13-	=13-	=13-	=13-
!	!	!LO:TX:t=P:problem:kreska pseudotaktowa	!	!	!	!LO:N:xstem:cue	!
1GG	De-	1B-X	De-	1d	De-	4a]	.
.	.	.	.	.	.	8gny\L	De-
!	!	!	!	!	!	!LO:TX:a:t=P:problem:# above	!
.	.	.	.	.	.	8f#X\J	.
!	!	!	!	!	!	!LO:TX:t=P:problem:kreska pseudotaktowa	!
!	!	!	!	!	!	!LO:TX:a:t=P:problem:♮ above	!
.	.	.	.	.	.	2gn\	.
!	!	!	!	!LO:SIC:v:t=custos d	!	!	!
2D/	-i	2A,/	-i	2d\	-i	2f#X,\	-i
*	*ij	*	*ij	*	*ij	*	*
!	!	!	!	!LO:LB:g=original	!	!LO:SIC:v:t=custos a	!
!	!	!	!	!LO:TX:t=P:problem:przekreślona nuta	!	!	!
1D\	Ag-	1A\	A-	1d\	A-	1f#\	A-
=14-	=14-	=14-	=14-	=14-	=14-	=14-	=14-
.	.	.	.	.	.	.	.
!LO:TX:t=P:problem:kreska pseudotaktowa	!	!	!	!LO:TX:t=P:problem:kreska pseudotaktowa	!	!	!
!	!	!	!	!	!	!LO:LB:g=original	!
2C/	-nus	4cny\	-gnus	2e\	-gnus	4a\	-gnus
!	!	!	!	!	!	!LO:TX:t=P:problem:przekreślona nuta	!
.	.	2c\	De-	.	.	2a\	.
1E	De-	.	.	1e	De	.	.
.	.	8Bny\L	.	.	.	8g#X\L	De-
!	!	!LO:SIC:v:t=custos B	!	!	!	!LO:TX:a:t=P:problem:# above	!
.	.	8A\J	.	.	.	8f#X\J	.
!	!	!LO:TX:t=P:problem:kreska pseudotaktowa	!	!	!	!LO:TX:t=P:problem:kreska pseudotaktowa	!
!	!	!LO:LB:g=original	!	!	!	!	!
.	.	2B\	-i	.	.	2g#X\	.
*	*	*	*Xij	*	*	*	*
=15-	=15-	=15-	=15-	=15-	=15-	=15-	=15-
!	!	!LO:N:acc=-	!	!	!	!	!
2.AA/	-i	2cnX\	.	4e\	.	2a\	-i
*	*Xij	*	*	*	*	*	*
.	.	.	.	4A/	i	.	.
*	*	*	*	*	*Xij	*	*
!	!	!LO:TX:t=P:problem:kreska pseudotaktowa	!	!LO:TX:t=P:problem:kreska pseudotaktowa	!	!LO:TX:t=P:problem:kreska pseudotaktowa	!
.	.	2r	.	2cny\	qui	2a\	qui
!LO:SIC:v:t=custos E	!	!	!	!	!	!	!
!LO:TX:t=P:problem:kreska pseudotaktowa	!	!	!	!	!	!	!
4AA/	qui	.	.	.	.	.	.
!LO:LB:g=original	!	!	!	!	!	!LO:N:acc=-	!
2E\	tol-	2E/	qui	4.B\	tol-	2gn\	tol-
.	.	.	.	8B\	-lis	.	.
!	!	!	!	!LO:TX:t=P:problem:kreska pseudotaktowa	!	!LO:TX:t=P:problem:kreska pseudotaktowa	!
4BBny/	-lis	4B\	tol-	2.d\	pec-	[<2f#X\	-lis
!LO:TX:t=P:problem:kreska pseudotaktowa	!	!	!	!	!	!	!
4BB/	pec-	8B\	-lis	.	.	.	.
!	!	!LO:TX:t=P:problem:kreska pseudotaktowa	!	!	!	!	!
.	.	8B\	pec-	.	.	.	.
=16-	=16-	=16-	=16-	=16-	=16-	=16-	=16-
!	!	!	!	!	!	!LO:N:xstem:cue	!
2D/	-ca-	8F#X/L	-ca-	.	.	4f#]	.
.	.	8E/	.	.	.	.	.
.	.	8F#/	.	4A/	-ca-	4f#y\	pec-
.	.	8Gny/J	.	.	.	.	.
2C/	-ta	8A/	.	4.c\	-ta	4.e\	-ca-
.	.	8E/	-ta	.	.	.	.
.	.	2A/	mun-	.	.	.	.
!	!	!	!	!	!	!LO:TX:t=P:problem:kreska pseudotaktowa	!
.	.	.	.	16B\LL	.	8e\	-ta
!	!	!	!	!LO:TX:t=P:problem:kreska pseudotaktowa	!	!	!
.	.	.	.	16A\JJ	.	.	.
2BB/	mu(n)-	.	.	2B\	mun-	2d\	mun-
!	!	!LO:TX:b:t=P:problem:# below	!	!	!	!	!
.	.	4G#X/	.	.	.	.	.
!LO:TX:t=P:problem:kreska pseudotaktowa	!	!LO:TX:t=P:problem:kreska pseudotaktowa	!	!LO:TX:t=P:problem:kreska pseudotaktowa	!	!LO:TX:t=P:problem:kreska pseudotaktowa	!
2AA/	-di	2A/	-di	2E/	-di	2c#X/	-di
=17||	=17||	=17||	=17||	=17||	=17||	=17||	=17||
*M3/2	*	*M3/2	*	*M3/2	*	*M3/2	*
!	!	!	!	!LO:TX:a:t=P:problem:# above	!	!	!
1A	do-	1A	Do-	1c#X	Do-	1e	do-
!LO:TX:t=P:problem:kreska pseudotaktowa	!	!LO:TX:t=P:problem:kreska pseudotaktowa	!	!LO:TX:t=P:problem:kreska pseudotaktowa	!	!LO:TX:t=P:problem:kreska pseudotaktowa	!
!	!	!	!	!LO:TX:a:t=P:problem:# above	!	!	!
2F#X\	-na	2A/	-na	2d#X\	-na	2f#X\	-na
=18-	=18-	=18-	=18-	=18-	=18-	=18-	=18-
!	!	!LO:TX:t=P:problem:kreska pseudotaktowa	!	!	!	!	!
1E	no-	1.B	no-	1e	no-	1g	no-
!LO:TX:t=P:problem:kreska pseudotaktowa	!	!	!	!LO:TX:t=P:problem:kreska pseudotaktowa	!	!LO:TX:t=P:problem:kreska pseudotaktowa	!
2BB/	-bis	.	.	2d-X\	-bis	2f#X\	-bis
=19-	=19-	=19-	=19-	=19-	=19-	=19-	=19-
2C/	pa-	2Gny/	-bis	(1cny	pa-	1e	pa-
2AA/	.	2A/	pa-	.	.	.	.
!	!	!LO:TX:t=P:problem:kreska pseudotaktowa	!	!LO:SIC:v:t=custos B	!	!	!
!	!	!LO:TX:b:t=P:problem:# below	!	!LO:TX:t=P:problem:kreska pseudotaktowa	!	!	!
2BB/	.	2F#X/	.	2B\)	.	2d#X\	.
=20-	=20-	=20-	=20-	=20-	=20-	=20-	=20-
!LO:TX:t=P:problem:kreska pseudotaktowa	!	!LO:TX:t=P:problem:kreska pseudotaktowa	!	!	!	!LO:SIC:v:t=custos g	!
!	!	!	!	!LO:PB:g=original	!	!LO:TX:t=P:problem:kreska pseudotaktowa	!
1.E	-cem	1.G	-cem	2B,\	-cem	1.e	-cem
.	.	.	.	2e\	do-	.	.
!	!	!	!	!LO:TX:t=P:problem:kreska pseudotaktowa	!	!	!
.	.	.	.	2B\	.	.	.
=21-	=21-	=21-	=21-	=21-	=21-	=21-	=21-
!	!	!	!	!LO:TX:a:t=P:problem:# above	!	!LO:LB:g=original	!
2.AA/	do-	1A	do-	1c#X	-na	2r	.
.	.	.	.	.	.	2a\	do-
4AA/	-na	.	.	.	.	.	.
!	!	!LO:TX:t=P:problem:kreska pseudotaktowa	!	!LO:TX:t=P:problem:kreska pseudotaktowa	!	!LO:TX:t=P:problem:kreska pseudotaktowa	!
4.D/	no-	2A/	-na	2dny\	no-	2f#X\	-na
!LO:TX:t=P:problem:kreska pseudotaktowa	!	!	!	!	!	!	!
8D/	-bis	.	.	.	.	.	.
=22-	=22-	=22-	=22-	=22-	=22-	=22-	=22-
*	*ij	*	*	*	*	*	*
!	!	!LO:PB:g=original	!	!	!	!	!
2.GG/	do-	1B	no-	1d	-bis	1g	no-
4GG/	-na	.	.	.	.	.	.
!LO:TX:t=P:problem:kreska pseudotaktowa	!	!	!	!LO:TX:t=P:problem:kreska pseudotaktowa	!	!LO:TX:t=P:problem:kreska pseudotaktowa	!
2C/	no-	1G/	-bis	2cny\	.	2e\	-bis
=23-	=23-	=23-	=23-	=23-	=23-	=23-	=23-
2GG/	-bis	.	.	2B\	pa-	(2dny\	pa-
*	*Xij	*	*	*	*	*	*
!	!	!LO:TX:t=P:problem:kreska pseudotaktowa	!	!LO:TX:t=P:problem:kreska pseudotaktowa	!	!	!
1AA	pa-	1E	pa-	1A	.	1cny)	.
=24-	=24-	=24-	=24-	=24-	=24-	=24-	=24-
!LO:TX:t=P:problem:kreska pseudotaktowa	!	!	!	!LO:TX:t=P:problem:kreska pseudotaktowa	!	!LO:TX:t=P:problem:kreska pseudotaktowa	!
1.E	-cem	2E,/	-cem	1.G#X	-cem	1.B	-cem
.	.	4.B\	do-	.	.	.	.
.	.	8E/	-na	.	.	.	.
.	.	4e\	no-	.	.	.	.
!	!	!LO:TX:t=P:problem:kreska pseudotaktowa	!	!	!	!	!
.	.	4d\	.	.	.	.	.
=25-	=25-	=25-	=25-	=25-	=25-	=25-	=25-
1AA	do-	4cny\	.	2.A/	Do-	4.A/	do-
.	.	4B\	.	.	.	.	.
.	.	.	.	.	.	8A/	-na
.	.	2A/	.	.	.	2e\	no-
.	.	.	.	4A/	-na	.	.
!	!	!	!	!LO:TX:t=P:problem:kreska pseudotaktowa	!	!LO:TX:t=P:problem:kreska pseudotaktowa	!
2E\	.	4G/	.	2.B\	no-	2B/	-bis
!	!	!LO:TX:t=P:problem:kreska pseudotaktowa	!	!	!	!	!
.	.	4A/	-bis	.	.	.	.
=26-	=26-	=26-	=26-	=26-	=26-	=26-	=26-
1BB	-na	2.B\	pa-	.	.	2.d\	pa-
.	.	.	.	4c\	.	.	.
.	.	.	.	4d\	.	.	.
.	.	8A/L	.	4e\	.	8c/L	.
.	.	8G/J	.	.	.	8B/J	.
!LO:TX:t=P:problem:kreska pseudotaktowa	!	!	!	!LO:TX:t=P:problem:kreska pseudotaktowa	!	!	!
!	!	!LO:TX:b:t=P:problem:# below	!	!	!	!	!
2D/	no-	4F#X/	.	2f#X\	.	4A/	.
!	!	!LO:TX:t=P:problem:kreska pseudotaktowa	!	!	!	!LO:TX:t=P:problem:kreska pseudotaktowa	!
.	.	4G/	.	.	.	4B/	.
=27-	=27-	=27-	=27-	=27-	=27-	=27-	=27-
2.C/	-bis	2A/	-cem	2e\	-bis	1c	.
!	!	!LO:TX:t=P:problem:kreska pseudotaktowa	!	!LO:SIC:v:t=custos E	!	!	!
.	.	1e	do-	2r	.	.	.
4D\	pa-	.	.	.	.	.	.
*	*	*	*	*	*ij	*	*
!	!	!	!	!LO:LB:g=original	!	!	!
1E\	.	.	.	4.E/	do-	4B/	.
!	!	!	!	!	!	!LO:TX:t=P:problem:kreska pseudotaktowa	!
.	.	.	.	.	.	4A/	.
!	!	!	!	!LO:TX:t=P:problem:kreska pseudotaktowa	!	!	!
.	.	.	.	8E/	-na	.	.
=28-	=28-	=28-	=28-	=28-	=28-	=28-	=28-
.	.	2B\	-na	1B	no-	4Gny/	.
.	.	.	.	.	.	4A/	.
!	!	!LO:TX:t=P:problem:kreska pseudotaktowa	!	!	!	!	!
2BB/	.	1d	no-	.	.	4B/	.
.	.	.	.	.	.	4c/	.
!LO:SIC:v:t=custos AA	!	!	!	!	!	!	!
!LO:TX:t=P:problem:kreska pseudotaktowa	!	!	!	!LO:TX:t=P:problem:kreska pseudotaktowa	!	!	!
2D/	.	.	.	2F#X/	.	4A/	.
!	!	!	!	!	!	!LO:TX:t=P:problem:kreska pseudotaktowa	!
.	.	.	.	.	.	4B/	.
=29-	=29-	=29-	=29-	=29-	=29-	=29-	=29-
!	!	!LO:SIC:v:t=custos B	!	!	!	!	!
4AA/	.	1c	.	1A	.	4c\	.
4BB/	.	.	.	.	.	4d\	.
!	!	!	!	!	!	!LO:SIC:v:t=custos c	!
4C/	.	.	.	.	.	1e	.
4D/	.	.	.	.	.	.	.
!LO:TX:t=P:problem:kreska pseudotaktowa	!	!LO:TX:t=P:problem:kreska pseudotaktowa	!	!LO:TX:t=P:problem:kreska pseudotaktowa	!	!	!
!	!	!LO:LB:g=original	!	!LO:TX:b:t=P:problem:# below	!	!	!
2E\	.	2B\	-bis	2G#X/	.	.	.
=30-	=30-	=30-	=30-	=30-	=30-	=30-	=30-
!	!	!	!	!	!	!LO:LB:g=original	!
2Fny\	.	1A	pa-	2A/	-bis	2c/	.
*	*	*	*	*	*Xij	*	*
2D/	.	.	.	2d\	pa-	2fny\	.
!LO:TX:t=P:problem:kreska pseudotaktowa	!	!	!	!LO:TX:t=P:problem:kreska pseudotaktowa	!	!LO:TX:t=P:problem:kreska pseudotaktowa	!
2E\	.	2G#X/	.	2B\	.	2e\	.
=31||-	=31||-	=31||-	=31||-	=31||-	=31||-	=31||-	=31||-
*M2/1	*	*M2/1	*	*M2/1	*	*M2/1	*
*met(C)	*	*met(C)	*	*met(C)	*	*met(C)	*
!	!	!LO:TX:t=P:problem:kreska pseudotaktowa	!	!LO:TX:t=P:problem:kreska pseudotaktowa	!	!LO:TX:t=P:problem:kreska pseudotaktowa	!
!	!	!	!	!LO:TX:a:t=P:problem:# above	!	!	!
1AA	-cem	1A,	-cem	1c#X	-cem	1e	-cem
*	*ij	*	*ij	*	*	*	*
!	!	!	!	!	!	!LO:TX:t=P:problem:kreska pseudotaktowa	!
2.FF#X/	do-	2.A/	do-	2.d\	Do-	1r	.
!LO:TX:t=P:problem:kreska pseudotaktowa	!	!LO:TX:t=P:problem:kreska pseudotaktowa	!	!LO:TX:t=P:problem:kreska pseudotaktowa	!	!	!
4FF#/	-na	4A/	-na	4cny\	-na	.	.
=32-	=32-	=32-	=32-	=32-	=32-	=32-	=32-
2GG/	no-	4Gny/	no-	4B-X\	no-	4g\	do-
.	.	4A/	.	4A\	.	4f\	-na
!	!	!	!	!LO:TX:t=P:problem:przekreślona nuta	!	!	!
2GG/	-bis	4.B-X\	.	1Gny/	-bis	4e\	no-
!	!	!	!	!	!	!LO:TX:t=P:problem:kreska pseudotaktowa	!
.	.	.	.	.	.	4d\	-bis
!	!	!LO:TX:t=P:problem:kreska pseudotaktowa	!	!	!	!	!
.	.	8B-\	-bis	.	.	.	.
!LO:TX:t=P:problem:kreska pseudotaktowa	!	!	!	!	!	!	!
0AA	pa-	0A	pa-	.	.	4c#X/	pa-
.	.	.	.	.	.	4A/	.
!	!	!	!	!LO:TX:t=P:problem:kreska pseudotaktowa	!	!	!
.	.	.	.	2Fny/	.	2.d\	.
=33-	=33-	=33-	=33-	=33-	=33-	=33-	=33-
.	.	.	.	1E	pa-	.	.
.	.	.	.	.	.	8c#X/L	.
.	.	.	.	.	.	8B/J	.
!	!	!	!	!	!	!LO:TX:t=P:problem:kreska pseudotaktowa	!
!	!	!	!	!	!	!LO:TX:b:t=P:problem:# below	!
.	.	.	.	.	.	2c#X/	.
0D;<	-cem	0A	-cem	0F#X	-cem	0d;	-cem
*	*Xij	*	*Xij	*	*	*	*
!LO:PB:g=original	!	!LO:PB:g=original	!	!LO:PB:g=original	!	!LO:PB:g=original	!
==	==	==	==	==	==	==	==
*-	*-	*-	*-	*-	*-	*-	*-
!!!system-decoration: [(s1,s2,s3,s4)]
!!!RDF**kern: < = below
!!!RDF**kern: > = above
!!!ENC: Andrzej Gręziak
!!!END: 2021-03-19
!!!ENC: Marta Chmielewska
!!!END: 2021-04-08
